X: 6049
T: Cape Clear
R: mazurka
M: 3/4
K: Dminor
|:A|d>e e2 ed|d>c A3 G|FG A>G FA|G>F D3 A|
d>e e2 ed|cA a3 g|fe df e>d|d4:|
a|a>g fg af|g>f ef ge|f>e df ed|d>c A3 G|
FG A=B cA|d>c de a>g|fe df e>d|d4|

